X: 11265
T: Dusty Windowsills
R: jig
M: 6/8
K: Adorian
|:A2B cBA|eAB cBA|~G3 EGG|DGG EFG|
A2B cBA|~e2d efg|age dBG|1 ABA AcB:|2 ABA Ac'b||
a3 age|dBd ~g2d|gag gfe|dBA ~G3|
EGG DGG|EFG ABc|Bed BAG|ABA Ac'b|
aba age|dBd ~g2d|gba gfe|dBA ~G3|
EGG DGG|EFG ABc|Bed BAG|ABA AEG||
|:A3 gAf|~A3 gdB|~G3 edB|~G3 edB|
~A3 gAf|~A3 efg|age dBG|ABA AcB:|

